storage/app/icons/phosphoricons/bold/arrows-out-bold.svg

<svg xmlns="http://www.w3.org/2000/svg" fill="currentColor" viewBox="0 0 256 256"><path d="M220 48v48a12 12 0 0 1-24 0V77l-35.51 35.52a12 12 0 0 1-17-17L179 60h-19a12 12 0 0 1 0-24h48a12 12 0 0 1 12 12M95.51 143.51 60 179v-19a12 12 0 0 0-24 0v48a12 12 0 0 0 12 12h48a12 12 0 0 0 0-24H77l35.52-35.51a12 12 0 0 0-17-17ZM208 148a12 12 0 0 0-12 12v19l-35.51-35.52a12 12 0 0 0-17 17L179 196h-19a12 12 0 0 0 0 24h48a12 12 0 0 0 12-12v-48a12 12 0 0 0-12-12M77 60h19a12 12 0 0 0 0-24H48a12 12 0 0 0-12 12v48a12 12 0 0 0 24 0V77l35.51 35.52a12 12 0 0 0 17-17Z"/></svg>

<svg xmlns="http://www.w3.org/2000/svg" viewBox="0 0 256 256" fill="currentColor"><path d="M220,48V96a12,12,0,0,1-24,0V77l-35.51,35.52a12,12,0,0,1-17-17L179,60H160a12,12,0,0,1,0-24h48A12,12,0,0,1,220,48ZM95.51,143.51,60,179V160a12,12,0,0,0-24,0v48a12,12,0,0,0,12,12H96a12,12,0,0,0,0-24H77l35.52-35.51a12,12,0,0,0-17-17ZM208,148a12,12,0,0,0-12,12v19l-35.51-35.52a12,12,0,0,0-17,17L179,196H160a12,12,0,0,0,0,24h48a12,12,0,0,0,12-12V160A12,12,0,0,0,208,148ZM77,60H96a12,12,0,0,0,0-24H48A12,12,0,0,0,36,48V96a12,12,0,0,0,24,0V77l35.51,35.52a12,12,0,0,0,17-17Z"/></svg>
